public/sumdu.svg

<svg clip-rule="evenodd" fill-rule="evenodd" stroke-linejoin="round" stroke-miterlimit="2" viewBox="0 0 1712 2048" xmlns="http://www.w3.org/2000/svg"><path d="m91.25 660.92c0 6.08-.48 12.09.15 18 .53 4.9-1.83 7.51-5.05 10.32-15.35 13.37-31.1 26.34-45.66 40.52-8.54 8.32-16.27 18-19.28 30.12-.929 3.452-1.297 7.031-1.09 10.6 1 12.21 10.84 15.17 20.21 18 20.16 6.08 41 5.53 61.62 4.65 29.66-1.26 58.64-7.54 87.5-14.24 49.4-11.48 97.77-26.5 145.51-43.45 30-10.667 59.667-22.197 89-34.59 32.72-13.85 65-28.69 97.15-43.9 26.17-12.41 52.2-25.27 77.53-39.29 27-15 53.65-30.68 79.44-47.6 29.21-19.16 57.73-39.46 85.72-60.38 17-12.67 33.29-26.6 44.36-45.17 3.55-6 6.68-12.86 7.47-19.63 2-16.93-5.62-25-22-29.43-12.78-3.44-25.93-2.84-39-1.39-7.62.85-15.23 1.83-23.11 2.78v-20.34c7-1 13.94-2.58 20.9-2.72 16.51-.32 33.15-1.29 49.28 3.74 11.5 3.58 22.79 7.86 29.36 18.82 2.648 4.35 4.352 9.209 5 14.26 2.46 22.47-3.62 42.73-16 61.62-11.73 18-26 33.7-41.78 47.86s-32.62 26.83-49.18 39.94c-1.992 1.385-3.099 3.733-2.9 6.15.08 17.66.63 35.35-.12 53-.82 19.13-2.66 38.22-4.45 57.3-3.06 32.63-11.25 64.13-22.26 94.91-12 33.5-28.55 64.62-50.56 92.6-9.253 11.92-19.295 23.205-30.06 33.78-18.995 18.427-40.368 34.234-63.55 47-23.39 12.93-48 22.85-73.93 28.64-16.34 3.63-33.15 5.4-49.84 7-12.242 1.08-24.538 1.41-36.82 1-29.2-.67-57.43-6.32-85.08-16-32.64-11.4-62.73-27.13-89.32-49.16-13.9-11.51-28-23.09-39.94-36.54-12.06-13.63-21.76-29.41-32-44.6-5.88-8.75-10.65-18.24-16.15-27.26-1.041-1.539-2.682-2.574-4.52-2.85-13.07-.82-26.23-.59-39.2-2.11-24.09-2.82-47.57-7.94-69.08-20.23-20.63-11.78-23.11-28.69-15.8-49.8 4.6-13.28 12.86-24.62 22.39-34.82s19.2-20.26 29.6-29.51c10.72-9.53 22.38-18 33.65-26.91.59-.327 1.228-.559 1.89-.69zm582.84-40.14c-12.41 7.59-23.69 13.83-34.22 21.13-7.17 5-17.63 6.08-19.86 15.84h-9.45l-.12 1.37 8 4c-8.59 22.41-20.61 42.27-37.91 60.24-1.73-16.59-3.3-31.76-4.88-46.93h-2.16c-.37 1.58-1.09 3.17-1 4.74.14 4.61.46 9.23.94 13.82.83 8 2.13 16 2.64 24 .22 3.49.22 8.28-1.83 10.41-14.48 15-31.74 26.26-50.72 34.93-22.862 10.522-47.713 16.029-72.88 16.15-9.25.06-18.5-1.15-27.75-1.74-5.62-.35-9.88-2.46-12.62-7.79-2.41-4.69-5.63-8.94-8.41-13.44-1.67-2.71-3.27-2.87-5.27-.28l11.71 17.75c-2.26 0-3.86.39-5.16-.06-7.77-2.68-15.41-5.72-23.21-8.25-2.79-.91-6.25-1.75-8.86-.91-17.38 5.6-34.51 11.94-51.91 17.47-17.24 5.48-34.67 10.34-52.06 15.36-10 2.89-20.06 5.55-30.18 8.33.003.939.127 1.873.37 2.78 6 13.35 11.22 27.18 18.4 39.9 11.63 20.61 27.43 37.91 45.84 52.95 23.49 19.18 48.7 35.2 77.73 44.47 12.67 4 25.49 8.31 38.56 10.25s26.29 1.2 39.46 1.3c15.62.1 30.86-2.84 45.71-7.38 34.57-10.57 63.24-30.08 87.08-57.24 13.369-15.343 25.009-32.111 34.71-50 15.64-28.52 26.62-58.93 34.39-90.42 6.35-25.74 11.1-51.84 12.34-78.44.76-17.65 1.66-35.4 2.58-54.31zm-247.05 164.53h39.2c0 6.13.24 11.66-.07 17.15-.36 6.57-1.38 13.11-1.79 19.68-.78 12.54-1.23 25.09-2 37.63-.3 4.73-1.19 9.43-1.82 14.15-.7 5.22-3.57 8.63-8.82 9.25-8 1-13.34-1.57-15.61-7.57-1.316-3.536-2.134-7.238-2.43-11-.88-10.7-1.12-21.45-2.09-32.14-1.28-14.26-3-28.48-4.51-42.72-.101-1.474-.121-2.953-.06-4.43zm-404.01-530.49v-29h254v30.84c-6.76 2-13.84 3.5-20.54 6.07-16.54 6.34-27.07 18.55-29.83 35.92-2.446 14.992-3.733 30.15-3.85 45.34-.31 108-.13 216-.19 323.94 0 15.29-1 30.59-.67 45.87.24 13 1.65 26.07 2.51 39.11.1 1.49 0 3 0 5.63-25 6.12-50.1 12.52-75.33 18.3-9.92 2.27-20.16 3.12-30.25 4.68-3.83.59-5.48-.74-7-4.64-7.675-19.285-12.291-39.651-13.68-60.36-1.14-18.867-1.76-37.767-1.86-56.7-.24-51.83 0-103.65-.12-155.48-.13-43.6-.68-87.21-.83-130.82 0-14.94 1-29.9.73-44.84-.09-9.401-1.044-18.774-2.85-28-4.85-23.73-20.27-37-43.63-41.56-8.66-1.68-17.45-2.83-26.61-4.3zm346.16 460.21c-14.07 5.57-27.19 10.89-40.45 15.84-2.104.491-4.322-.019-6-1.38-11.745-11.185-21.756-24.06-29.7-38.2-5.55-10.07-10.33-20.58-15-31.1-1.16-2.6-1.65-6.43-.61-8.92 5.78-13.85 12.12-27.47 18.31-41.14.774-1.472 1.621-2.904 2.54-4.29zm-28.44-178.66 101.48 46.25 5.06 15.26c-15.86 30.73-32.61 63.21-49.38 95.67-.6 1.17-1.79 2.14-2.08 3.35-2.71 11-12.82 12.09-21 15.56-.87.36-3.27-1.41-4.14-2.74-13.45-20.57-26.75-41.24-40.13-61.86-9.25-14.26-18.5-28.51-27.93-42.65-2.06-3.08-2.35-5.7-.82-9.07 7.75-17.14 15.28-34.38 23.06-51.5.5-1.1 2.4-2.09 3.73-2.21 6.4-.58 8.19-1.31 12.15-6.06zm208.42 96.6-150.13 70.47-1.24-1.57c2.32-4.23 4.72-8.42 6.94-12.71 14.913-28.827 29.79-57.68 44.63-86.56 1.32-2.58 2.48-4.36 5.81-4.14 1.86.13 4.32-.34 5.58-1.53 4.5-4.24 8.33-2.1 12.88 0 24.94 11.55 50 22.81 75 34.17zm-276.89-67.35c7.34 11.32 14.73 22.6 21.92 34 .68 1.08.47 3.22-.11 4.52-6.25 14-12.65 28-19.63 42-7.447-26.05-8.72-53.482-3.72-80.11zm225.83-56.95c8.76 1.56 13-1.34 15.56-9.93.38-1.3 2.33-2.73 3.77-3 11.7-2.46 23.45-4.68 35.88-7.1.69 4.64 1.58 9.25 2 13.91 1.4 14.42 2.55 28.86 3.94 43.27 1.74 18 3.65 36.06 5.45 54.09.68 6.74 1.4 13.47 1.75 20.23-.133 1.666-.938 3.209-2.23 4.27-6.18 5-12.23 4-19.27.7-23.84-11.35-48-22-72-32.9-3-1.35-5.85-2.3-5.78-6.85 0-2.73-2.24-5.49-3.93-9.26 11.19-21.77 23.05-44.66 34.86-67.43zm72.74 112.47c-.41-2.28-.87-4.12-1.06-6-1.2-12.16-2.39-24.32-3.5-36.48-.74-8.07-1.22-16.15-2-24.21-1.14-11.63-2.5-23.23-3.68-34.85-1-10-2-20-2.65-30-.06-.91 1.89-2.58 3.13-2.84 7.72-1.65 15.48-3.13 23.29-4.33 1.729-.097 3.415.578 4.6 1.84 16.82 20.85 29 44.18 35.51 70.16 2.56 10.16 3.42 20.75 5.15 31.13.63 3.82-1.26 5.45-4.47 7.1-17.94 9.24-35.73 18.71-54.32 28.48zm-343.15-11.39c0-7.09-.07-14 .07-21 .073-1.242.679-2.395 1.66-3.16 12.37-7.21 24.82-14.28 38-21.8-.81 8.41-1.46 15.89-2.32 23.34-.209 1.289-.931 2.44-2 3.19-11.14 6.48-22.35 12.8-33.56 19.14-.598.19-1.222.288-1.85.29zm69.53-13.58c-8.22-12.44-16.2-23.76-23.19-35.68-1.58-2.7.38-7.43.59-11.23.28-4.87 3.1-6.32 7.62-7.1 10.32-1.76 20.5-4.28 30.77-6.35 3.06-.62 6.65-1.07 7.91 2.72.517 2.178.288 4.468-.65 6.5-6.14 14.22-12.49 28.34-18.82 42.48-1.2 2.69-2.58 5.3-4.23 8.66zm44.39-65.73c16.72-3.28 33.437-6.56 50.15-9.84 17.9-3.54 35.793-7.087 53.68-10.64 13.66-2.73 27.39-5.14 40.91-8.45 4.23-1 5.51 1.24 6.75 3.52.75 1.38.28 4-.54 5.58-6.49 12.68-13.21 25.24-19.83 37.85-4.07 7.76-8 15.63-12.24 23.27-.82 1.47-3.06 2.33-4.83 3s-4.13.06-5.18 1.1c-4.55 4.48-8.51 2.24-13.18.08-26.54-12.24-53.23-24.18-79.84-36.28-5.46-2.48-10.79-5.22-16.19-7.84.16-.47.23-.92.34-1.35zm448.37-272.31c-8.29 1.8-17 2.55-24.88 5.65-17 6.73-30.67 17.54-35.91 36.22-1.037 3.449-1.616 7.02-1.72 10.62-.15 23.16 0 46.33-.09 69.49-.25 47.27-.66 94.55-.89 141.82 0 3.26-1.17 4.9-3.94 6.63-14.85 9.25-29.49 18.83-44.21 28.29l-5.03 3.24v-243.94c0-30.42-21-50.43-48.85-55.24-5.8-1-11.71-1.35-17.73-2v-33.1h183.25zm-511.96 279.83c3.84-8.44 7.48-16.45 11.3-24.87l29.11 12.84c.11 3.56-1 5.15-5 5.8-10.62 1.76-21.11 4.29-31.67 6.45-1.251.059-2.505-.015-3.74-.22zm252.41-100.68c-8 15.44-15.67 30.59-23.65 45.61-.69 1.3-3 2.33-4.65 2.45-6.66.45-9.89 3-11.71 9.22-.511 1.415-1.643 2.522-3.07 3-31.7 6.36-63.42 12.627-95.16 18.8-15.76 3.1-31.52 6.22-47.3 9.2-1.36.26-4.07-.21-4.16-.71-.57-3.08-5.58-3.95-3.46-8.49 8.79-18.84 17.25-37.84 25.82-56.79 3.26-7.21 6.27-14.56 9.91-21.57 1.393-2.691 3.617-4.862 6.34-6.19 26.66-11.21 54.62-15.18 83.35-13.43 21.26 1.394 42.061 6.824 61.29 16 2.05.89 4.11 1.83 6.45 2.9zm-238.89 72.02c18.34-31.64 43.58-55.5 76.9-72.34-4.83 10.91-9.25 20.91-13.7 30.91-7 15.82-14.07 31.66-21.28 47.41-.63 1.37-2.59 2.21-4.06 3.07-.65.37-1.94-.16-2.4.28-5.85 5.5-11.43 2.26-17-.4-5.99-2.86-11.94-5.79-18.46-8.93zm242.83-70.14c4.66 2.86 9.06 5.4 13.26 8.26 1.353.911 2.306 2.308 2.66 3.9 1.21 10.8 2.15 21.63 3.21 32.82-12.93 2.7-25.7 5.43-38.49 8-2.75.54-5.93-4.29-4.57-6.93 6.68-12.94 13.49-25.82 20.24-38.73 1.14-2.21 2.22-4.42 3.69-7.32zm23.06 44.04c-1-10.1-2-20-3-29.8 11.07 6.92 20.63 14.62 29.15 25.07zm108.62-72.89v20.71c-13.06 4-26.28 7.82-39.4 12-14.75 4.68-29.53 9.3-44 14.63-6.51 2.39-11.73 2.35-17-2.32-3.19-2.8-7-4.92-10.9-7.63 36.34-14.51 73.03-27.61 111.3-37.39zm-261.84-146.96h85.22c-.26 4.77-.43 9.34-.77 13.9-1.15 15.48-2.42 31-3.51 46.45-.76 10.71-1.2 21.45-2 32.16-1.14 15.29-2.54 30.55-3.72 45.84-.25 3.29 0 6.61 0 10.64-20.866-3.474-42.195-3.085-62.92 1.15-4.14-50.05-8.19-99.74-12.3-150.14zm-70.21-94.91h224v31.23c-3.38 0-5.53.19-7.64 0-7.89-.84-13 2.75-17.08 9.3-6.42 10.19-13.43 20-20.4 29.84-3.68 5.2-8.26 8.14-15.41 8.06-34-.39-68-.33-101.94 0-7.2.06-11.74-2.87-15.62-8.43-8.11-11.64-16.22-23.31-25-34.47-2.13-2.7-6.64-3.77-10.26-5-2.1-.69-4.63-.22-6.95-.11-2.76.13-3.84-1-3.8-3.81.18-8.71.1-17.37.1-26.61zm139.48-135c7.9 17-3.26 28.63-9.34 42.09 6.84.5 13.06-.87 17.89-4.67 10.22-8 20.49-16.22 29.53-25.52 17.48-18 36-34.19 59.72-43.38 4-1.53 8.39-1.78 13-1.94-17 16.11-21.61 37.14-26 58.42-2.89 14-5.82 28-10.28 41.51-5.74 17.36-18.06 29.92-34.11 38.27-8.86 4.6-18.52 7.68-27.89 11.26-1.75.67-3.85.45-6.85.74 3-5.54 5.73-10.14 8-15 4.088-8.346 5.429-17.776 3.83-26.93-.57-3.18-1.63-4.16-4.59-2.77-.44.21-1.07.12-1.42.4-13 10.29-29.2 8.93-44.14 12.11-10.73 2.29-22 3.79-28 14.63-2.61 4.7-4.07 10.08-5.75 15.24-1.23 3.77-2.77 5-7.15 4-19.84-4.68-37-24.18-39.57-44.91-2.22-17.88 5.36-30.64 20-39.61 15-9.16 31.47-13.85 48.92-16 12.25-1.53 24.24-4.87 35.11-11.1 3.12-1.84 5.85-4.4 9.09-6.84z" fill-rule="nonzero" transform="matrix(2.04483 0 0 2.04483 .038 -.040897)"/></svg>

<?xml version="1.0" encoding="UTF-8" standalone="no"?>
<!DOCTYPE svg PUBLIC "-//W3C//DTD SVG 1.1//EN" "http://www.w3.org/Graphics/SVG/1.1/DTD/svg11.dtd">
<svg width="100%" height="100%" viewBox="0 0 1712 2048" version="1.1" xmlns="http://www.w3.org/2000/svg" xmlns:xlink="http://www.w3.org/1999/xlink" xml:space="preserve" xmlns:serif="http://www.serif.com/" style="fill-rule:evenodd;clip-rule:evenodd;stroke-linejoin:round;stroke-miterlimit:2;">
    <g transform="matrix(1,0,0,1,-239.305,-5.16583e-12)">
        <g transform="matrix(2.04483,0,0,2.04483,239.343,-0.0408966)">
            <path d="M91.25,660.92C91.25,667 90.77,673.01 91.4,678.92C91.93,683.82 89.57,686.43 86.35,689.24C71,702.61 55.25,715.58 40.69,729.76C32.15,738.08 24.42,747.76 21.41,759.88C20.481,763.332 20.113,766.911 20.32,770.48C21.32,782.69 31.16,785.65 40.53,788.48C60.69,794.56 81.53,794.01 102.15,793.13C131.81,791.87 160.79,785.59 189.65,778.89C239.05,767.41 287.42,752.39 335.16,735.44C365.16,724.773 394.827,713.243 424.16,700.85C456.88,687 489.16,672.16 521.31,656.95C547.48,644.54 573.51,631.68 598.84,617.66C625.84,602.66 652.49,586.98 678.28,570.06C707.49,550.9 736.01,530.6 764,509.68C781,497.01 797.29,483.08 808.36,464.51C811.91,458.51 815.04,451.65 815.83,444.88C817.83,427.95 810.21,419.88 793.83,415.45C781.05,412.01 767.9,412.61 754.83,414.06C747.21,414.91 739.6,415.89 731.72,416.84L731.72,396.5C738.72,395.5 745.66,393.92 752.62,393.78C769.13,393.46 785.77,392.49 801.9,397.52C813.4,401.1 824.69,405.38 831.26,416.34C833.908,420.69 835.612,425.549 836.26,430.6C838.72,453.07 832.64,473.33 820.26,492.22C808.53,510.22 794.26,525.92 778.48,540.08C762.7,554.24 745.86,566.91 729.3,580.02C727.308,581.405 726.201,583.753 726.4,586.17C726.48,603.83 727.03,621.52 726.28,639.17C725.46,658.3 723.62,677.39 721.83,696.47C718.77,729.1 710.58,760.6 699.57,791.38C687.57,824.88 671.02,856 649.01,883.98C639.757,895.9 629.715,907.185 618.95,917.76C599.955,936.187 578.582,951.994 555.4,964.76C532.01,977.69 507.4,987.61 481.47,993.4C465.13,997.03 448.32,998.8 431.63,1000.4C419.388,1001.48 407.092,1001.81 394.81,1001.4C365.61,1000.73 337.38,995.08 309.73,985.4C277.09,974 247,958.27 220.41,936.24C206.51,924.73 192.41,913.15 180.47,899.7C168.41,886.07 158.71,870.29 148.47,855.1C142.59,846.35 137.82,836.86 132.32,827.84C131.279,826.301 129.638,825.266 127.8,824.99C114.73,824.17 101.57,824.4 88.6,822.88C64.51,820.06 41.03,814.94 19.52,802.65C-1.11,790.87 -3.59,773.96 3.72,752.85C8.32,739.57 16.58,728.23 26.11,718.03C35.64,707.83 45.31,697.77 55.71,688.52C66.43,678.99 78.09,670.52 89.36,661.61C89.95,661.283 90.588,661.051 91.25,660.92ZM674.09,620.78C661.68,628.37 650.4,634.61 639.87,641.91C632.7,646.91 622.24,647.99 620.01,657.75L610.56,657.75L610.44,659.12L618.44,663.12C609.85,685.53 597.83,705.39 580.53,723.36C578.8,706.77 577.23,691.6 575.65,676.43L573.49,676.43C573.12,678.01 572.4,679.6 572.49,681.17C572.63,685.78 572.95,690.4 573.43,694.99C574.26,702.99 575.56,710.99 576.07,718.99C576.29,722.48 576.29,727.27 574.24,729.4C559.76,744.4 542.5,755.66 523.52,764.33C500.658,774.852 475.807,780.359 450.64,780.48C441.39,780.54 432.14,779.33 422.89,778.74C417.27,778.39 413.01,776.28 410.27,770.95C407.86,766.26 404.64,762.01 401.86,757.51C400.19,754.8 398.59,754.64 396.59,757.23L408.3,774.98C406.04,774.98 404.44,775.37 403.14,774.92C395.37,772.24 387.73,769.2 379.93,766.67C377.14,765.76 373.68,764.92 371.07,765.76C353.69,771.36 336.56,777.7 319.16,783.23C301.92,788.71 284.49,793.57 267.1,798.59C257.1,801.48 247.04,804.14 236.92,806.92C236.923,807.859 237.047,808.793 237.29,809.7C243.29,823.05 248.51,836.88 255.69,849.6C267.32,870.21 283.12,887.51 301.53,902.55C325.02,921.73 350.23,937.75 379.26,947.02C391.93,951.02 404.75,955.33 417.82,957.27C430.89,959.21 444.11,958.47 457.28,958.57C472.9,958.67 488.14,955.73 502.99,951.19C537.56,940.62 566.23,921.11 590.07,893.95C603.439,878.607 615.079,861.839 624.78,843.95C640.42,815.43 651.4,785.02 659.17,753.53C665.52,727.79 670.27,701.69 671.51,675.09C672.27,657.44 673.17,639.69 674.09,620.78ZM427.04,785.31L466.24,785.31C466.24,791.44 466.48,796.97 466.17,802.46C465.81,809.03 464.79,815.57 464.38,822.14C463.6,834.68 463.15,847.23 462.38,859.77C462.08,864.5 461.19,869.2 460.56,873.92C459.86,879.14 456.99,882.55 451.74,883.17C443.74,884.17 438.4,881.6 436.13,875.6C434.814,872.064 433.996,868.362 433.7,864.6C432.82,853.9 432.58,843.15 431.61,832.46C430.33,818.2 428.61,803.98 427.1,789.74C426.999,788.266 426.979,786.787 427.04,785.31ZM23.03,254.82L23.03,225.82L277.03,225.82L277.03,256.66C270.27,258.66 263.19,260.16 256.49,262.73C239.95,269.07 229.42,281.28 226.66,298.65C224.214,313.642 222.927,328.8 222.81,343.99C222.5,451.99 222.68,559.99 222.62,667.93C222.62,683.22 221.62,698.52 221.95,713.8C222.19,726.8 223.6,739.87 224.46,752.91C224.56,754.4 224.46,755.91 224.46,758.54C199.46,764.66 174.36,771.06 149.13,776.84C139.21,779.11 128.97,779.96 118.88,781.52C115.05,782.11 113.4,780.78 111.88,776.88C104.205,757.595 99.589,737.229 98.2,716.52C97.06,697.653 96.44,678.753 96.34,659.82C96.1,607.99 96.34,556.17 96.22,504.34C96.09,460.74 95.54,417.13 95.39,373.52C95.39,358.58 96.39,343.62 96.12,328.68C96.03,319.279 95.076,309.906 93.27,300.68C88.42,276.95 73,263.68 49.64,259.12C40.98,257.44 32.19,256.29 23.03,254.82ZM369.19,715.03C355.12,720.6 342,725.92 328.74,730.87C326.636,731.361 324.418,730.851 322.74,729.49C310.995,718.305 300.984,705.43 293.04,691.29C287.49,681.22 282.71,670.71 278.04,660.19C276.88,657.59 276.39,653.76 277.43,651.27C283.21,637.42 289.55,623.8 295.74,610.13C296.514,608.658 297.361,607.226 298.28,605.84L369.19,715.03ZM340.75,536.37L442.23,582.62L447.29,597.88C431.43,628.61 414.68,661.09 397.91,693.55C397.31,694.72 396.12,695.69 395.83,696.9C393.12,707.9 383.01,708.99 374.83,712.46C373.96,712.82 371.56,711.05 370.69,709.72C357.24,689.15 343.94,668.48 330.56,647.86C321.31,633.6 312.06,619.35 302.63,605.21C300.57,602.13 300.28,599.51 301.81,596.14C309.56,579 317.09,561.76 324.87,544.64C325.37,543.54 327.27,542.55 328.6,542.43C335,541.85 336.79,541.12 340.75,536.37ZM549.17,632.97L399.04,703.44L397.8,701.87C400.12,697.64 402.52,693.45 404.74,689.16C419.653,660.333 434.53,631.48 449.37,602.6C450.69,600.02 451.85,598.24 455.18,598.46C457.04,598.59 459.5,598.12 460.76,596.93C465.26,592.69 469.09,594.83 473.64,596.93C498.58,608.48 523.64,619.74 548.64,631.1L549.17,632.97ZM272.28,565.62C279.62,576.94 287.01,588.22 294.2,599.62C294.88,600.7 294.67,602.84 294.09,604.14C287.84,618.14 281.44,632.14 274.46,646.14C267.013,620.09 265.74,592.658 270.74,566.03L272.28,565.62ZM498.11,508.67C506.87,510.23 511.11,507.33 513.67,498.74C514.05,497.44 516,496.01 517.44,495.74C529.14,493.28 540.89,491.06 553.32,488.64C554.01,493.28 554.9,497.89 555.32,502.55C556.72,516.97 557.87,531.41 559.26,545.82C561,563.82 562.91,581.88 564.71,599.91C565.39,606.65 566.11,613.38 566.46,620.14C566.327,621.806 565.522,623.349 564.23,624.41C558.05,629.41 552,628.41 544.96,625.11C521.12,613.76 496.96,603.11 472.96,592.21C469.96,590.86 467.11,589.91 467.18,585.36C467.18,582.63 464.94,579.87 463.25,576.1C474.44,554.33 486.3,531.44 498.11,508.67ZM570.85,621.14C570.44,618.86 569.98,617.02 569.79,615.14C568.59,602.98 567.4,590.82 566.29,578.66C565.55,570.59 565.07,562.51 564.29,554.45C563.15,542.82 561.79,531.22 560.61,519.6C559.61,509.6 558.61,499.6 557.96,489.6C557.9,488.69 559.85,487.02 561.09,486.76C568.81,485.11 576.57,483.63 584.38,482.43C586.109,482.333 587.795,483.008 588.98,484.27C605.8,505.12 617.98,528.45 624.49,554.43C627.05,564.59 627.91,575.18 629.64,585.56C630.27,589.38 628.38,591.01 625.17,592.66C607.23,601.9 589.44,611.37 570.85,621.14ZM227.7,609.75C227.7,602.66 227.63,595.75 227.77,588.75C227.843,587.508 228.449,586.355 229.43,585.59C241.8,578.38 254.25,571.31 267.43,563.79C266.62,572.2 265.97,579.68 265.11,587.13C264.901,588.419 264.179,589.57 263.11,590.32C251.97,596.8 240.76,603.12 229.55,609.46C228.952,609.65 228.328,609.748 227.7,609.75ZM297.23,596.17C289.01,583.73 281.03,572.41 274.04,560.49C272.46,557.79 274.42,553.06 274.63,549.26C274.91,544.39 277.73,542.94 282.25,542.16C292.57,540.4 302.75,537.88 313.02,535.81C316.08,535.19 319.67,534.74 320.93,538.53C321.447,540.708 321.218,542.998 320.28,545.03C314.14,559.25 307.79,573.37 301.46,587.51C300.26,590.2 298.88,592.81 297.23,596.17ZM341.62,530.44C358.34,527.16 375.057,523.88 391.77,520.6C409.67,517.06 427.563,513.513 445.45,509.96C459.11,507.23 472.84,504.82 486.36,501.51C490.59,500.51 491.87,502.75 493.11,505.03C493.86,506.41 493.39,509.03 492.57,510.61C486.08,523.29 479.36,535.85 472.74,548.46C468.67,556.22 464.74,564.09 460.5,571.73C459.68,573.2 457.44,574.06 455.67,574.73C453.9,575.4 451.54,574.79 450.49,575.83C445.94,580.31 441.98,578.07 437.31,575.91C410.77,563.67 384.08,551.73 357.47,539.63C352.01,537.15 346.68,534.41 341.28,531.79C341.44,531.32 341.51,530.87 341.62,530.44ZM789.99,258.13C781.7,259.93 772.99,260.68 765.11,263.78C748.11,270.51 734.44,281.32 729.2,300C728.163,303.449 727.584,307.02 727.48,310.62C727.33,333.78 727.48,356.95 727.39,380.11C727.14,427.38 726.73,474.66 726.5,521.93C726.5,525.19 725.33,526.83 722.56,528.56C707.71,537.81 693.07,547.39 678.35,556.85L673.32,560.09L673.32,316.15C673.32,285.73 652.32,265.72 624.47,260.91C618.67,259.91 612.76,259.56 606.74,258.91L606.74,225.81L789.99,225.81L789.99,258.13ZM278.03,537.96C281.87,529.52 285.51,521.51 289.33,513.09L318.44,525.93C318.55,529.49 317.44,531.08 313.44,531.73C302.82,533.49 292.33,536.02 281.77,538.18C280.519,538.239 279.265,538.165 278.03,537.96ZM530.44,437.28C522.44,452.72 514.77,467.87 506.79,482.89C506.1,484.19 503.79,485.22 502.14,485.34C495.48,485.79 492.25,488.34 490.43,494.56C489.919,495.975 488.787,497.082 487.36,497.56C455.66,503.92 423.94,510.187 392.2,516.36C376.44,519.46 360.68,522.58 344.9,525.56C343.54,525.82 340.83,525.35 340.74,524.85C340.17,521.77 335.16,520.9 337.28,516.36C346.07,497.52 354.53,478.52 363.1,459.57C366.36,452.36 369.37,445.01 373.01,438C374.403,435.309 376.627,433.138 379.35,431.81C406.01,420.6 433.97,416.63 462.7,418.38C483.96,419.774 504.761,425.204 523.99,434.38C526.04,435.27 528.1,436.21 530.44,437.28ZM291.55,509.3C309.89,477.66 335.13,453.8 368.45,436.96C363.62,447.87 359.2,457.87 354.75,467.87C347.75,483.69 340.68,499.53 333.47,515.28C332.84,516.65 330.88,517.49 329.41,518.35C328.76,518.72 327.47,518.19 327.01,518.63C321.16,524.13 315.58,520.89 310.01,518.23C304.02,515.37 298.07,512.44 291.55,509.3ZM534.38,439.16C539.04,442.02 543.44,444.56 547.64,447.42C548.993,448.331 549.946,449.728 550.3,451.32C551.51,462.12 552.45,472.95 553.51,484.14C540.58,486.84 527.81,489.57 515.02,492.14C512.27,492.68 509.09,487.85 510.45,485.21C517.13,472.27 523.94,459.39 530.69,446.48C531.83,444.27 532.91,442.06 534.38,439.16ZM557.44,483.2C556.44,473.1 555.44,463.2 554.44,453.4C565.51,460.32 575.07,468.02 583.59,478.47L557.44,483.2ZM666.06,410.31L666.06,431.02C653,435.02 639.78,438.84 626.66,443.02C611.91,447.7 597.13,452.32 582.66,457.65C576.15,460.04 570.93,460 565.66,455.33C562.47,452.53 558.66,450.41 554.76,447.7C591.1,433.19 627.79,420.09 666.06,410.31ZM404.22,263.35L489.44,263.35C489.18,268.12 489.01,272.69 488.67,277.25C487.52,292.73 486.25,308.25 485.16,323.7C484.4,334.41 483.96,345.15 483.16,355.86C482.02,371.15 480.62,386.41 479.44,401.7C479.19,404.99 479.44,408.31 479.44,412.34C458.574,408.866 437.245,409.255 416.52,413.49C412.38,363.44 408.33,313.75 404.22,263.35ZM334.01,168.44L558.01,168.44L558.01,199.67C554.63,199.67 552.48,199.86 550.37,199.67C542.48,198.83 537.37,202.42 533.29,208.97C526.87,219.16 519.86,228.97 512.89,238.81C509.21,244.01 504.63,246.95 497.48,246.87C463.48,246.48 429.48,246.54 395.54,246.87C388.34,246.93 383.8,244 379.92,238.44C371.81,226.8 363.7,215.13 354.92,203.97C352.79,201.27 348.28,200.2 344.66,198.97C342.56,198.28 340.03,198.75 337.71,198.86C334.95,198.99 333.87,197.86 333.91,195.05C334.09,186.34 334.01,177.68 334.01,168.44ZM473.49,33.44C481.39,50.44 470.23,62.07 464.15,75.53C470.99,76.03 477.21,74.66 482.04,70.86C492.26,62.86 502.53,54.64 511.57,45.34C529.05,27.34 547.57,11.15 571.29,1.96C575.29,0.43 579.68,0.18 584.29,0.02C567.29,16.13 562.68,37.16 558.29,58.44C555.4,72.44 552.47,86.44 548.01,99.95C542.27,117.31 529.95,129.87 513.9,138.22C505.04,142.82 495.38,145.9 486.01,149.48C484.26,150.15 482.16,149.93 479.16,150.22C482.16,144.68 484.89,140.08 487.16,135.22C491.248,126.874 492.589,117.444 490.99,108.29C490.42,105.11 489.36,104.13 486.4,105.52C485.96,105.73 485.33,105.64 484.98,105.92C471.98,116.21 455.78,114.85 440.84,118.03C430.11,120.32 418.84,121.82 412.84,132.66C410.23,137.36 408.77,142.74 407.09,147.9C405.86,151.67 404.32,152.9 399.94,151.9C380.1,147.22 362.94,127.72 360.37,106.99C358.15,89.11 365.73,76.35 380.37,67.38C395.37,58.22 411.84,53.53 429.29,51.38C441.54,49.85 453.53,46.51 464.4,40.28C467.52,38.44 470.25,35.88 473.49,33.44Z" style="fill-rule:nonzero;"/>
        </g>
    </g>
</svg>
